!!!OTL: 272. Die beiden Schwaene.
!!!ARE: Europa, Mitteleuropa, Deutschland, Berlin
!!!SCT: B0272
!!!TXL: @@DE
!!!YEM: Copyright 1995, estate of Helmut Schaffrath.
**kern	**text
*ICvox	*
*Ivox	*
*clefG2	*
*M6/8	*
*k[f#]	*
*G:	*
{8B	Es
=1	=1
8.b	woh-
16a	-nen
8g	ʒwei
8f#	Schwäne
8e	.
8f#	im
=2	=2
4.e	See,
4r}	.
{8e	die
=3	=3
8.cc	ſchüch-
16b	-tern
8a	den
8g#	U-
8f#X	-fer-
8g#	-rand
=4	=4
8b	meiden,
8a	.
8r	.
4r}	.
{8a	ſie
=5	=5
8.dd	ſchimmern
16ee	.
8dd	wie
8dd	blen-
8ee	-den-
8cc	-der
=6	=6
4.b	Schnee
4r}	.
{8b	au
=7	=7
8.g	Schilfgras
16f#	.
8e	und
8.g	al-
16f#	-tern-
8e	-den
=8	=8
8b	Wei-
8B	-den
8r	.
4r}	.
{8b	und
=9	=9
8b	trau-
8a	-lich
8a	um-
8a	-ſchat-
8g	-tet
8g	der
=10	=10
4dd	moſ-
8cc	-ge
4b}	Stein
{8b	die
=11	=11
8.b-/	ein-
16a	-ſam-
8g	-en
8.b-	Klaus-
16a	-ner
8g	bei'm
=12	=12
(8.b/L	Ta-
16ccJ)	.
16aL	-ges-
16bJ	.
4g}	-ſchein.
{8dd	Gu-
=13	=13
8ee	-li-
8dd	-ho!
8r	.
4r	.
8dd	Gu-
=14	=14
(4dd	-li-
8f#)	.
4g}	-ho!
==	==
!!!AGN: Stimmungs - Lied, Trauer, Tod
!!!GTL: Trauerlieder (Elegien) und Stimmungslieder
!!!ONB: ESAC (Essen Associative Code) Database: BOEHME
!!!AMT: compound duple
!!!AIN: vox
!!!EED: Helmut Schaffrath
!!!EEV: 1.0
!!Mel. 1839 mündlich in Berlin gehֳört.
!!@@COMMENT:"Gedicht von Fr. Kind. 1819. Jm 4. Bdchen ֵ¿einer Gedichte. 1819."
!!@@END:
!!!Text: Fr. Kind
!!!URL-scan: https://archive.org/details/BoehmeVtLieder1895/page/n233/mode/2up
!!!ENC: Anna Maria Matuszewska
!!!EEV: 2024/03/07
*-	*-
